X:178
T:Sally's Taste. JJo8.178
B:J.Johnson Choice Collection Vol 8 1758
Z:vmp.Simon Wilson 2013 www.village-music-project.org.uk
M:2/4
L:1/8
Q:1/2=80
K:D
|:d2de/f/|e2ef/g/|fafd|ecBA|d2de/f/|e2ef/g/|fdec|d4:|
|:fgaf|bgfg|efge|afef|defd|gfed|cdef|e2A2|
d2de/f/|e2ef/g/|fafd|ecBA|d2de/f/|e2ef/g/|fdec|d4:|
